X: 1
T:Polka du P?re Plumet
T:The 48 Bar Polka
M:2/2
L:1/8
Q:240
C:Trad
S:Blowzabella
K:G
Bc|d2 g2 f2 e2|dedc B2 AB|c2 A2 A2 GA|BcBA GBc^c|\
d2 g2 f2 e2|dedc B2 AB|c2 A2 f2 ef| [1a2 g2 g2:| [2a2 g2 g4||
|:d2 d2 BdBd|g2 f2 e2 d2|c2 c2 AcAc|e2 _e2 d4|\
d2 d2 BdBd|g2 fg a2 ab|agfe dcBA|G2 Bd g4:|
|:c2 Gc e4|e2 ce g4|gage =f2 d2|d=fed e2 c2|\
c2 Gc e4|e2 ce g4|gage =f2 ed| [1c2 e2 c4:| [2c2 e2 c2|]
<end>
<start>
